svgs/face-to-face-2.svg

<?xml version="1.0" encoding="UTF-8"?>
<svg width="1000px" height="1000px" viewBox="0 0 1000 1000" version="1.1" xmlns="http://www.w3.org/2000/svg" xmlns:xlink="http://www.w3.org/1999/xlink">
    <!-- Generator: Sketch 52.2 (67145) - http://www.bohemiancoding.com/sketch -->
    <title>face-to-face-2</title>
    <desc>Created with Sketch.</desc>
    <g id="face-to-face-2" stroke="none" stroke-width="1" fill="none" fill-rule="evenodd">
        <path d="M473.784688,626.448911 C455.380138,629.136744 438.278688,616.414255 435.587531,598.032437 C432.896373,579.650619 445.634596,562.570292 464.039146,559.882459 C493.814119,555.53407 523.170267,548.692762 550.913658,539.730315 C563.72574,535.189708 570.594441,530.677343 573.51702,526.882078 C574.887683,525.102134 575.154647,523.800911 575.132563,516.949392 C575.130355,516.274205 575.130355,516.274205 575.129534,515.541475 L575.129534,484.49179 C575.129534,465.914501 590.208027,450.854633 608.80829,450.854633 C627.408554,450.854633 642.487047,465.914501 642.487047,484.49179 L642.487047,515.541475 C642.487653,516.088937 642.487653,516.088937 642.489727,516.732824 C642.555791,537.229372 639.661695,551.335654 626.909361,567.895848 C615.322793,582.942178 597.65415,594.549522 572.555001,603.43097 C540.335737,613.855101 507.295902,621.554874 473.784688,626.448911 Z M913.321227,654.328188 C898.294085,635.643153 877.667916,622.490595 849.353602,616.834727 C800.48287,607.072653 768.522732,592.367629 749.831234,571.124264 C734.201115,553.360235 730.539112,537.723245 730.569168,514.85706 L730.569948,513.98899 L730.569948,484.49179 C730.569948,474.646158 734.888886,465.294811 742.387727,458.903983 C774.103525,431.874444 792.483508,392.40629 792.746114,350.978149 L792.746114,260.934065 C792.746114,197.142592 746.762939,161.057581 685.860729,161.050968 C661.055895,160.559659 636.882861,168.884893 617.653243,184.54174 C603.23647,196.279946 582.021903,194.122974 570.269181,179.724008 C558.516459,165.325043 560.676099,144.136679 575.092871,132.398474 C606.697987,106.665437 646.427923,92.9823802 686.528497,93.7832651 C780.886613,93.7832651 860.103627,155.948326 860.103627,260.934065 L860.102955,351.190556 C859.750086,407.001199 837.247624,460.155859 797.927461,499.205127 L797.927461,513.98899 L797.926623,514.94538 C797.916148,522.914355 798.218221,524.204225 800.427833,526.715506 C807.614763,534.883635 826.846502,543.732257 862.563497,550.866833 C906.92972,559.729118 941.225704,581.59842 965.835488,612.198695 C985.670047,636.861363 995.635944,661.526465 999.322267,679.60061 L1000,686.314737 L1000,748.414106 C1000,766.991395 984.921507,782.051263 966.321244,782.051263 L810.880829,782.051263 C792.280565,782.051263 777.202073,766.991395 777.202073,748.414106 C777.202073,729.836816 792.280565,714.776948 810.880829,714.776948 L932.642487,714.776948 L932.642487,690.198809 C930.267277,681.44799 924.227348,667.889067 913.321227,654.328188 Z M502.590674,605.585559 L502.590135,606.472957 C502.581575,615.90889 503.138944,618.916814 505.465884,622.27382 C513.284595,633.553634 538.001847,644.710184 588.388934,651.420164 L588.971612,651.50294 C651.068654,660.878108 695.307201,687.677344 722.630038,726.707087 C744.140651,757.434266 751.295337,788.094942 751.295337,810.513474 L751.295337,872.612842 C751.295337,891.190131 736.216844,906.25 717.61658,906.25 L33.6787565,906.25 C15.0784929,906.25 0,891.190131 0,872.612842 L0.397064547,805.363524 C3.60348072,784.693128 13.3599089,756.067811 33.8960732,727.235171 C62.8139726,686.634631 105.607701,659.050554 162.906403,651.420164 C216.786288,644.245053 240.973505,633.206461 246.974351,623.121683 C248.322653,620.855781 248.712635,618.341811 248.7052,609.633498 L248.704663,608.690527 L248.704663,585.584416 C207.641269,541.950637 186.528497,475.795915 186.528497,400.657643 L186.528497,291.983749 C186.528497,166.95585 267.872061,93.7832651 375.647668,93.7832651 C483.423276,93.7832651 564.766839,166.95585 564.766839,291.983749 L564.766839,400.657643 C564.766839,475.471635 543.751255,540.517197 502.590674,584.058465 L502.590674,605.585559 Z M450.08495,660.566869 C437.90185,642.990682 435.212631,628.477923 435.23265,606.411999 L435.233161,605.585559 L435.233161,569.878422 C435.233161,560.270378 439.346947,551.120934 446.536969,544.737697 C479.069835,515.855312 497.409326,464.360802 497.409326,400.657643 L497.409326,291.983749 C497.409326,205.770982 447.702905,161.057581 375.647668,161.057581 C303.592432,161.057581 253.88601,205.770982 253.88601,291.983749 L253.88601,400.657643 C253.88601,464.781926 272.450331,517.607398 304.758368,546.290181 C311.94839,552.673418 316.062176,561.822862 316.062176,571.430906 L316.062176,608.690527 L316.062688,609.576131 C316.079806,629.62563 314.182861,641.85404 304.877916,657.491554 C285.888577,689.404269 244.095026,708.47806 171.808623,718.104342 C133.807069,723.164958 107.277071,740.265723 88.7826136,766.231819 C75.2481166,785.234164 68.7008449,804.44383 67.357513,810.513474 L67.357513,838.975684 L683.937824,838.975684 L683.937824,810.513474 C683.937824,800.666111 679.798613,782.927946 667.427537,765.256284 C650.857625,741.586729 623.10918,724.748495 579.18059,718.063486 C512.006151,709.07817 470.796084,690.446187 450.08495,660.566869 Z" id="Shape" fill="#101010" fill-rule="nonzero"></path>
    </g>
</svg>

<svg width="1000" height="1000" viewBox="0 0 1000 1000" xmlns="http://www.w3.org/2000/svg"><path d="M473.785 626.449c-18.405 2.688-35.506-10.035-38.197-28.417-2.692-18.381 10.047-35.462 28.451-38.15 29.775-4.348 59.131-11.19 86.875-20.152 12.812-4.54 19.68-9.053 22.603-12.848 1.37-1.78 1.638-3.081 1.616-9.933-.003-.675-.003-.675-.003-1.408v-31.05c0-18.576 15.078-33.636 33.678-33.636 18.6 0 33.679 15.06 33.679 33.637v31.05c0 .547 0 .547.003 1.19.066 20.497-2.828 34.604-15.58 51.164-11.587 15.046-29.256 26.654-54.355 35.535a604.774 604.774 0 0 1-98.77 23.018zm439.536 27.88c-15.027-18.686-35.653-31.838-63.967-37.494-48.871-9.762-80.831-24.467-99.523-45.71-15.63-17.765-19.292-33.402-19.262-56.268v-30.365a33.62 33.62 0 0 1 11.819-25.588c31.716-27.03 50.096-66.498 50.358-107.926v-90.044c0-63.791-45.983-99.876-106.885-99.883a104.745 104.745 0 0 0-68.208 23.49c-14.417 11.739-35.631 9.582-47.384-4.817-11.753-14.399-9.593-35.587 4.824-47.326 31.605-25.733 71.335-39.416 111.435-38.615 94.359 0 173.576 62.165 173.576 167.151l-.001 90.257c-.353 55.81-22.855 108.965-62.176 148.014v15.74c-.01 7.97.291 9.26 2.5 11.77 7.188 8.169 26.42 17.017 62.136 24.152 44.367 8.862 78.663 30.731 103.272 61.332 19.835 24.662 29.8 49.327 33.487 67.402l.678 6.714v62.1c0 18.576-15.078 33.636-33.679 33.636h-155.44c-18.6 0-33.679-15.06-33.679-33.637 0-18.577 15.079-33.637 33.679-33.637h121.761v-24.578c-2.375-8.751-8.415-22.31-19.32-35.87zm-410.73-48.743v.887c-.01 9.436.548 12.444 2.875 15.8 7.819 11.28 32.536 22.437 82.923 29.147l.583.083c62.097 9.375 106.335 36.174 133.658 75.204 21.51 30.727 28.665 61.388 28.665 83.806v62.1c0 18.577-15.078 33.637-33.678 33.637H33.679C15.079 906.25 0 891.19 0 872.613l.397-67.25c3.206-20.67 12.963-49.295 33.5-78.128 28.917-40.6 71.71-68.184 129.01-75.815 53.88-7.175 78.067-18.214 84.067-28.298 1.349-2.266 1.739-4.78 1.731-13.489v-24.049c-41.064-43.633-62.177-109.788-62.177-184.926V291.984c0-125.028 81.344-198.2 189.12-198.2 107.775 0 189.119 73.172 189.119 198.2v108.674c0 74.814-21.016 139.86-62.176 183.4v21.528zm-52.506 54.98c-12.183-17.575-14.872-32.088-14.852-54.154v-36.534a33.619 33.619 0 0 1 11.304-25.14c32.533-28.883 50.872-80.377 50.872-144.08V291.984c0-86.213-49.706-130.926-121.761-130.926-72.056 0-121.762 44.713-121.762 130.926v108.674c0 64.124 18.564 116.95 50.872 145.632a33.619 33.619 0 0 1 11.304 25.14v38.146c.018 20.05-1.88 32.278-11.184 47.916-18.99 31.912-60.783 50.986-133.07 60.612-38 5.061-64.53 22.162-83.025 48.128-13.535 19.002-20.082 38.212-21.425 44.281v28.463h616.58v-28.463c0-9.847-4.14-27.585-16.51-45.257-16.57-23.67-44.319-40.508-88.247-47.193-67.175-8.985-108.385-27.617-129.096-57.496z" fill="#101010"/></svg>
